X:724
T: Dr. Gilbert's
Z: Piano Box Version by Martin Fleischmann
H: Created 2015-05-02 /  Last Modified 2015-05-05
R: reel
M: 4/4
L: 1/8
K: Emin
gf|:eB (3BBB ABeB|dBAc BAGF|EDB,D GEFD|EDB,E DB,A,D|
|B,EEE EDB,D|GEEE EFGA|(3Bcd ed Bdgb|afdf efgf:|
|:e~B3 g~B3|defg afdf| ggge f2af|egfd e~B3|
|afdf edB^c|dBAF AFDF|EAcA Bdgb|afdf efgf:|

